icons/drag-drop-line.svg

<svg viewBox="0 0 24 24" fill="currentColor" xmlns="http://www.w3.org/2000/svg"><path d="M16 13L22.9641 17.0622L19.9913 17.9129L22.116 21.5933L20.384 22.5933L18.2592 18.9129L16.0359 21.0622L16 13ZM14 6H16V8H21C21.5523 8 22 8.44772 22 9V13H20V10H10V20H14V22H9C8.44772 22 8 21.5523 8 21V16H6V14H8V9C8 8.44772 8.44772 8 9 8H14V6ZM4 14V16H2V14H4ZM4 10V12H2V10H4ZM4 6V8H2V6H4ZM4 2V4H2V2H4ZM8 2V4H6V2H8ZM12 2V4H10V2H12ZM16 2V4H14V2H16Z"/></svg>

<svg xmlns="http://www.w3.org/2000/svg" viewBox="0 0 24 24">
    <g>
        <path fill="none" d="M0 0h24v24H0z"/>
        <path fill-rule="nonzero" d="M16 13l6.964 4.062-2.973.85 2.125 3.681-1.732 1-2.125-3.68-2.223 2.15L16 13zm-2-7h2v2h5a1 1 0 0 1 1 1v4h-2v-3H10v10h4v2H9a1 1 0 0 1-1-1v-5H6v-2h2V9a1 1 0 0 1 1-1h5V6zM4 14v2H2v-2h2zm0-4v2H2v-2h2zm0-4v2H2V6h2zm0-4v2H2V2h2zm4 0v2H6V2h2zm4 0v2h-2V2h2zm4 0v2h-2V2h2z"/>
    </g>
</svg>
